web-magabank/image/home/icon-sem-taxa.svg

<svg width="54" height="54" viewBox="0 0 54 54" fill="none" xmlns="http://www.w3.org/2000/svg">
<circle cx="26.7467" cy="26.6618" r="25.9428" fill="#1C262A" stroke="#0181F4"/>
<path fill-rule="evenodd" clip-rule="evenodd" d="M32.5208 18.0885C32.5208 15.7659 34.3151 13.9021 36.586 13.9021C38.8569 13.9021 40.6793 15.7372 40.6793 18.0598C40.6793 20.3823 38.8289 22.2461 36.586 22.2461C34.3431 22.2461 32.5208 20.411 32.5208 18.0885ZM33.3899 18.0598C33.3899 19.8662 34.8197 21.3286 36.586 21.3286C38.3523 21.3286 39.7821 19.8949 39.7821 18.0885C39.7821 16.282 38.3523 14.8197 36.586 14.8197C34.8478 14.8197 33.3899 16.2534 33.3899 18.0598ZM37.8559 18.6484C37.8615 18.6705 37.8673 18.6936 37.8757 18.7193C37.9038 18.8053 37.9038 18.8626 37.9038 18.9487C37.9038 19.0634 37.9038 19.1494 37.8757 19.2354L37.7916 19.4935C37.7695 19.5274 37.7517 19.5613 37.7349 19.5935C37.7091 19.6429 37.6854 19.6881 37.6514 19.7229C37.5954 19.8089 37.5393 19.8662 37.4832 19.9236C37.4581 19.9407 37.4355 19.9578 37.4139 19.9741C37.3631 20.0126 37.3179 20.0468 37.2589 20.0669C37.1748 20.1243 37.0907 20.153 37.0066 20.1816H36.9786V20.6404V20.7838H36.8384H36.4459H36.3057V20.6404V20.2103H36.2496C36.1655 20.2103 36.1094 20.2103 36.0253 20.1816C35.9868 20.1685 35.9482 20.1614 35.9123 20.1548L35.912 20.1547C35.8698 20.1469 35.8313 20.1398 35.801 20.1243C35.745 20.1243 35.6609 20.0956 35.6048 20.0669C35.5964 20.0641 35.5883 20.0612 35.5804 20.0584L35.577 20.0572C35.5072 20.0325 35.4518 20.0129 35.3525 20.0383L35.2684 20.0096V19.9236L35.3244 19.4074L35.3525 19.2067L35.5207 19.2928C35.5347 19.2928 35.5487 19.2999 35.5627 19.3071C35.5767 19.3143 35.5908 19.3214 35.6048 19.3214C35.6188 19.3214 35.6328 19.3286 35.6468 19.3358C35.6609 19.3429 35.6749 19.3501 35.6889 19.3501C35.7169 19.3644 35.7449 19.3716 35.773 19.3787C35.801 19.3859 35.8291 19.3931 35.8571 19.4074C35.9132 19.4361 35.9693 19.4648 36.0253 19.4648C36.0369 19.4648 36.0534 19.4697 36.0726 19.4755C36.0998 19.4836 36.1327 19.4935 36.1655 19.4935H36.3057H36.4178H36.53C36.5628 19.4935 36.5957 19.4836 36.6229 19.4755C36.6421 19.4697 36.6585 19.4648 36.6702 19.4648C36.6842 19.4505 36.7052 19.4433 36.7262 19.4361C36.7473 19.429 36.7683 19.4218 36.7823 19.4074C36.8384 19.3788 36.8664 19.3501 36.8945 19.3214L36.9786 19.2354C37.0066 19.2067 37.0346 19.1494 37.0346 19.1207V18.9773C37.0346 18.9437 37.025 18.9101 37.017 18.8823C37.0114 18.8626 37.0066 18.8458 37.0066 18.834C36.9959 18.8121 36.9893 18.7944 36.9836 18.7792C36.9745 18.7547 36.9679 18.737 36.9505 18.7193L36.8664 18.6333C36.8384 18.6333 36.8103 18.6046 36.7823 18.5759C36.7683 18.5616 36.7473 18.5544 36.7262 18.5472C36.7052 18.5401 36.6842 18.5329 36.6702 18.5186C36.6421 18.4899 36.5861 18.4612 36.558 18.4612C36.5019 18.4326 36.4178 18.4039 36.3337 18.3752C36.3168 18.3666 36.2974 18.3553 36.2762 18.3431L36.2759 18.3429C36.2267 18.3144 36.1681 18.2805 36.1094 18.2605C36.0962 18.2538 36.0814 18.247 36.0658 18.2398C36.0152 18.2167 35.956 18.1896 35.9132 18.1458C35.8291 18.1171 35.773 18.0598 35.7169 18.0024C35.6889 17.9738 35.6679 17.9451 35.6468 17.9164C35.6258 17.8878 35.6048 17.8591 35.5767 17.8304C35.5627 17.8017 35.5417 17.7659 35.5207 17.73C35.4996 17.6942 35.4786 17.6584 35.4646 17.6297C35.4253 17.5694 35.4135 17.5231 35.4003 17.4712C35.3947 17.4491 35.3889 17.426 35.3805 17.4003C35.3525 17.3143 35.3525 17.2569 35.3525 17.1709C35.3525 17.0849 35.3525 16.9702 35.3805 16.8842L35.4646 16.6261C35.4926 16.5401 35.5207 16.4541 35.5767 16.3967C35.6328 16.3107 35.6889 16.2534 35.745 16.196C35.801 16.1387 35.8571 16.0813 35.9412 16.0527C36.0253 15.9953 36.1094 15.9666 36.1935 15.938H36.2216V15.5079V15.3645H36.3618H36.7543H36.8945V15.5079V15.9093H36.9225C36.9505 15.9093 36.9716 15.9164 36.9926 15.9236C37.0136 15.9308 37.0346 15.938 37.0627 15.938C37.0955 15.938 37.1284 15.9478 37.1556 15.9559C37.1748 15.9617 37.1912 15.9666 37.2028 15.9666C37.2357 15.9666 37.2589 15.9765 37.2782 15.9846C37.2918 15.9904 37.3034 15.9953 37.315 15.9953C37.329 15.9953 37.35 16.0025 37.3711 16.0096C37.3921 16.0168 37.4131 16.024 37.4271 16.024L37.5393 16.0527V16.1674L37.4832 16.6261L37.4552 16.7982L37.315 16.7408C37.3034 16.7408 37.2918 16.7359 37.2782 16.7301C37.2589 16.722 37.2357 16.7121 37.2028 16.7121C37.1888 16.7121 37.1678 16.705 37.1468 16.6978C37.1342 16.6935 37.1216 16.6892 37.1105 16.6865C37.1031 16.6846 37.0963 16.6835 37.0907 16.6835C37.0791 16.6835 37.0627 16.6786 37.0434 16.6728C37.0162 16.6646 36.9834 16.6548 36.9505 16.6548C36.8945 16.6261 36.8664 16.6261 36.8103 16.6261H36.7262H36.6421C36.5861 16.6261 36.558 16.6261 36.5019 16.6548C36.4459 16.6548 36.3898 16.6835 36.3618 16.7121L36.2777 16.7982C36.2636 16.8125 36.2566 16.834 36.2496 16.8555C36.2426 16.877 36.2356 16.8985 36.2216 16.9129C36.2216 16.9272 36.2146 16.9487 36.2076 16.9702C36.2006 16.9917 36.1935 17.0132 36.1935 17.0276V17.1709C36.1935 17.1996 36.1935 17.2569 36.2216 17.2856C36.2216 17.343 36.2496 17.3716 36.2777 17.4003L36.3618 17.4863C36.3758 17.5007 36.3968 17.5079 36.4178 17.515C36.4389 17.5222 36.4599 17.5293 36.4739 17.5437C36.4879 17.558 36.509 17.5652 36.53 17.5724C36.551 17.5795 36.572 17.5867 36.5861 17.601C36.6141 17.6297 36.6702 17.6584 36.6982 17.6584C36.7543 17.687 36.8384 17.7157 36.9225 17.7444C36.9645 17.7587 36.9996 17.7802 37.0346 17.8017C37.0697 17.8232 37.1047 17.8447 37.1468 17.8591C37.1539 17.8627 37.1615 17.8664 37.1694 17.8701L37.1904 17.8798C37.241 17.9029 37.3002 17.93 37.343 17.9738C37.4271 18.0024 37.4832 18.0598 37.5393 18.1171C37.5673 18.1458 37.5883 18.1745 37.6094 18.2032C37.6304 18.2318 37.6514 18.2605 37.6795 18.2892C37.7223 18.333 37.7488 18.3935 37.7714 18.4452C37.7784 18.4612 37.785 18.4763 37.7916 18.4899C37.8309 18.5502 37.8427 18.5965 37.8559 18.6484ZM34.6235 22.7909C34.4833 22.5902 34.1749 22.5615 33.9787 22.7049L29.4368 26.4038L23.5772 23.9092C23.437 23.8518 23.2688 23.8805 23.1567 23.9665L16.8766 28.5542C16.6803 28.6976 16.6242 28.9844 16.7644 29.1851C16.8485 29.3284 16.9887 29.3858 17.1289 29.3858C17.213 29.3858 17.2971 29.3571 17.3812 29.2998L23.4651 24.8554L29.3527 27.35C29.4929 27.4073 29.6891 27.3786 29.8013 27.2926L34.5394 23.4504C34.7356 23.307 34.7637 22.9916 34.6235 22.7909ZM39.1093 38.504H41.184C41.4363 38.504 41.6326 38.7046 41.6045 38.9627C41.6045 39.2208 41.4083 39.4215 41.156 39.4215H38.6327H34.5114H32.1003H27.9789H25.5678H21.4465H18.9793H14.858H12.3347C12.0824 39.4215 11.8861 39.2208 11.8861 38.9627C11.8861 38.7046 12.0824 38.504 12.3347 38.504H14.4374V31.823C14.4374 31.565 14.6337 31.3643 14.886 31.3643H19.0354C19.2877 31.3643 19.4839 31.565 19.4839 31.823V38.504H20.9979V29.1277C20.9979 28.8697 21.1942 28.669 21.4465 28.669H25.5678C25.8201 28.669 26.0164 28.8697 26.0164 29.1277V38.504H27.5303V29.8159C27.5303 29.5578 27.7266 29.3571 27.9789 29.3571H32.1283C32.3806 29.3571 32.5769 29.5578 32.5769 29.8159V38.504H34.0908V25.2281C34.0908 24.9701 34.2871 24.7694 34.5394 24.7694H38.6607C38.9131 24.7694 39.1093 24.9701 39.1093 25.2281V38.504ZM15.3346 38.504H18.5587V32.2818H15.3346V38.504ZM21.8951 38.504H25.1192V29.5865H21.8951V38.504ZM28.4275 38.504H31.6517V30.2747H28.4275V38.504ZM34.988 38.504H38.2122V25.6869H34.988V38.504Z" fill="white"/>
</svg>

<svg width="54" height="54" fill="none" xmlns="http://www.w3.org/2000/svg"><circle cx="26.747" cy="26.662" r="25.943" fill="#1C262A" stroke="#0181F4"/><path fill-rule="evenodd" clip-rule="evenodd" d="M32.52 18.088c0-2.322 1.795-4.186 4.066-4.186 2.27 0 4.093 1.835 4.093 4.158 0 2.322-1.85 4.186-4.093 4.186s-4.065-1.835-4.065-4.157zm.87-.028c0 1.806 1.43 3.269 3.196 3.269 1.766 0 3.196-1.434 3.196-3.24 0-1.807-1.43-3.27-3.196-3.27-1.738 0-3.196 1.434-3.196 3.24zm4.466.588c.005.023.011.046.02.071a.643.643 0 01.028.23c0 .114 0 .2-.028.286l-.084.259c-.023.033-.04.067-.057.1a.536.536 0 01-.084.129c-.056.086-.112.143-.168.2l-.07.051a.548.548 0 01-.154.093.98.98 0 01-.252.115h-.028v.602h-.673v-.574h-.056c-.084 0-.14 0-.225-.028a.786.786 0 00-.113-.027c-.042-.008-.08-.015-.111-.03a.51.51 0 01-.196-.058l-.025-.009h-.003a.33.33 0 00-.224-.02l-.085-.028v-.086l.056-.517.029-.2.168.086c.014 0 .028.007.042.014a.098.098 0 00.042.014c.014 0 .028.008.042.015.014.007.028.014.042.014a.385.385 0 00.084.029c.028.007.056.014.084.028.056.03.112.058.168.058.012 0 .028.005.048.01.027.009.06.018.093.018h.364c.033 0 .066-.01.093-.017a.193.193 0 01.047-.011c.014-.014.035-.022.056-.029a.138.138 0 00.056-.029c.056-.028.084-.057.113-.086l.084-.086a.22.22 0 00.056-.114v-.144a.35.35 0 00-.018-.095c-.006-.02-.01-.036-.01-.048-.011-.022-.018-.04-.023-.055a.15.15 0 00-.034-.06l-.084-.086c-.028 0-.056-.028-.084-.057a.14.14 0 00-.056-.029.139.139 0 01-.056-.028.21.21 0 00-.112-.058c-.056-.028-.14-.057-.224-.086-.017-.008-.037-.02-.058-.032a.974.974 0 00-.167-.082l-.043-.021a.497.497 0 01-.153-.094.504.504 0 01-.196-.144c-.028-.028-.05-.057-.07-.086-.021-.028-.042-.057-.07-.086-.014-.028-.035-.064-.056-.1a1.606 1.606 0 01-.056-.1.465.465 0 01-.065-.159c-.005-.022-.011-.045-.02-.07-.028-.087-.028-.144-.028-.23 0-.086 0-.2.029-.287l.084-.258a.582.582 0 01.112-.23c.056-.085.112-.143.168-.2a.502.502 0 01.196-.143.98.98 0 01.252-.115h.029v-.573h.672v.544h.029c.027 0 .049.007.07.015a.202.202 0 00.07.014c.032 0 .065.01.093.018.019.006.035.01.047.01.033 0 .056.01.075.019.014.005.025.01.037.01.014 0 .035.008.056.015a.211.211 0 00.056.014l.112.029v.114l-.056.46-.028.171-.14-.057a.098.098 0 01-.037-.01c-.02-.009-.042-.019-.075-.019a.21.21 0 01-.056-.014l-.036-.012a.083.083 0 00-.02-.003.195.195 0 01-.048-.01.328.328 0 00-.093-.018c-.056-.029-.084-.029-.14-.029h-.168c-.056 0-.084 0-.14.029a.212.212 0 00-.14.057l-.084.086c-.014.015-.021.036-.028.058a.146.146 0 01-.028.057c0 .014-.007.036-.014.057-.007.022-.014.043-.014.058v.143c0 .029 0 .086.028.115 0 .057.028.086.056.114l.084.086a.138.138 0 00.056.029c.02.007.042.014.056.029.014.014.035.021.056.028a.14.14 0 01.056.029.21.21 0 00.112.057c.056.029.14.058.224.086a.552.552 0 01.113.058c.035.021.07.043.112.057a.809.809 0 00.022.011l.021.01c.051.023.11.05.153.094.084.028.14.086.196.143.028.029.05.057.07.086.021.029.042.058.07.086.043.044.07.104.092.156l.02.045c.04.06.052.107.065.158zm-3.233 4.143c-.14-.2-.448-.23-.644-.086l-4.542 3.699-5.86-2.495a.439.439 0 00-.42.058l-6.28 4.587a.465.465 0 00-.113.631c.085.143.225.2.365.2a.446.446 0 00.252-.085l6.084-4.445 5.888 2.495c.14.057.336.029.448-.057l4.738-3.843c.197-.143.225-.458.084-.66zm4.486 15.713h2.075c.252 0 .449.2.42.459a.448.448 0 01-.448.459H12.335a.448.448 0 01-.449-.46c0-.257.196-.458.449-.458h2.102v-6.681c0-.258.197-.459.449-.459h4.15c.252 0 .448.201.448.459v6.681h1.514v-9.376c0-.258.196-.459.448-.459h4.122c.252 0 .448.2.448.459v9.376h1.514v-8.688c0-.258.197-.459.449-.459h4.15c.252 0 .448.2.448.459v8.688h1.514V25.228c0-.258.196-.459.448-.459h4.122c.252 0 .448.201.448.46v13.275zm-23.774 0h3.224v-6.222h-3.224v6.222zm6.56 0h3.224v-8.917h-3.224v8.917zm6.532 0h3.225v-8.23h-3.225v8.23zm6.561 0h3.224V25.687h-3.224v12.817z" fill="#fff"/></svg>
